X: 45
T:Silver and Gold
% Nottingham Music Database
S:Ken McDouall, via EF
M:4/4
L:1/4
K:D
fg |"D"a2 fd|"D"A2 df|"Em"ag2f|"Em"g2 ef|"A7"g2 ec|"A7"A2 ce|
"D"ba -"A7"a^g|"D"a2 "A7"fg|"D"a2 fd|"D"A2 df|"G"ag2f|"Em"g2 ef|"A7"g2 ec|
"A7"A2 ce|"D"d3/2e/2 "A7"dc|"D"d2 "G"cB|"D"Af Af|"D"A/2ff/2 ff|"Em"fe2^d|
"Em"e2 EF|"A7"Ge Ge|"A7"G/2ee/2 ee|"D"ed -"A7"dc|"D"d2 "A7"FG|"D"Af Af|
"D7"A/2ff/2 ff|"G"ag2e|"Em"B2 cd|"A7"fe2c|"A7"A2 ce|"D"d3/2e/2 "A7"dc|"D"d2 ||<end>
<start>
